X:1
T:Chant à Sainte-Barbe
T:Chant à Sainte-Barbe
T:Arrangement de l'Association Sainte Barbe des Mines en 2005
T:Reprise et arrangement pour la Clique des Sapeurs Pompiers de Basècles
C:Reprise et arrangement pour la Clique des Sapeurs Pompers de Basècles
%%score 1 2 3
L:1/8
Q:1/4=100
M:2/4
K:C
V:1 treble transpose=-2 nm="Trompette en Si♭" snm="Tromp. Si♭"
V:2 perc stafflines=1 nm="Caisse claire" snm="C.Cl."
K:none
I:percmap E B 38 normal
V:3 perc stafflines=1 nm="Grosse caisse" snm="Gr. C."
K:none
I:percmap E B 35 normal
V:1
[K:C] z2 G>G | c4 | G>c B>A | (G3 F) | E2 EE | A2 A>^G | A2 c2 | B>A ^G>B | A2 z E | FG AB | %10
w: Sain te|Barbe|O Dou ce pa|tron *|ne Tu nous|vois à tes|pieds im|plo * ton se|cours Quand|le ro cher s'a|
 c2 z G | AB cd | ee d>d | c2 A>c | (B3 A) | G2 z E | FG AB | c z2 G | AB cd | ee d>d | c2 A>d | %21
w: bat ou|que la mi ne|ton ne veil le|veil le sur|nous tou|jours Quand|le ro cher s'a|bat ou|que le mi ne|ton ne vei le|veil le sur|
 c3 B | c2 c>c | c2 c>c | e4 | d4 | c4 |[M:4/4] A2 AB c2 c2 | B2 A2 E2 E2 | A2 AB c2 c2 | %30
w: nous tou|jours Veil le|veil le sur|nous|tou|jours|Sol da ts du feu|ris quant ta vie|Au ser ce de ton|
 B2 c2 B2 z2 | A2 AB c2 c2 | B2 A2 E2 E2 | d2 A2 E2 E2 | d2 cB c2 d2 | c2 B2 A2 z2 |] %36
w: pro ch ain|Al or s qu e|gr on d e|l'i nc en die|Sai nte te Bar be|gui ta main|
V:2
 z4 | EE EE | EE/E/ EE/E/ | EE EE | EE/E/ EE/E/ | EE EE | EE/E/ EE/E/ | EE EE | EE/E/ EE/E/ | %9
 EE EE | EE/E/ EE/E/ | EE EE | EE/E/ EE/E/ | EE EE | EE/E/ EE/E/ | EE EE | EE/E/ EE/E/ | EE EE | %18
 EE/E/ EE/E/ | EE EE | EE/E/ EE/E/ | EE EE | EE/E/ EE/E/ | EE EE | E2 z2 | E2 z2 | E2 z2 | %27
[M:4/4] E2 EE E2 E2 | E2 EE E2 E2 | E2 EE E2 E2 | E2 E2 E2 z2 | E2 EE E2 E2 | E2 EE E2 E2 | %33
 E2 EE E2 E2 | E2 EE E2 E2 | E2 E2 E2 z2 |] %36
V:3
 z4 | E2 z2 | E2 z2 | E2 z2 | E2 z2 | E2 z2 | E2 z2 | E2 z2 | E2 z2 | E2 z2 | E2 z2 | E2 z2 | %12
 E2 z2 | E2 z2 | E2 z2 | E2 z2 | E2 z2 | E2 z2 | E2 z2 | E2 z2 | E2 z2 | E2 z2 | E2 z2 | E2 z2 | %24
 E2 z2 | E2 z2 | E2 z2 |[M:4/4] E2 z2 E2 z2 | E2 z2 E2 z2 | E2 z2 E2 z2 | E2 E2 E2 z2 | %31
"_[ Refrain : \nSainte-Barbe, ô douce patronne\nTu nous vois à tes pieds , implorant ton secours\nQuand le rocher s'abat ou que la mine tonne\nVeille , veille , sur nous toujours. ( bis )\n\nSoldat du feu , risquant ta vie\nAu service de ton prochain\nAlors que gronde l'incendie\nSainte-Barbe , guide ta main\n\n" E2 z2 E2 z2 | %32
 E2 z2 E2 z2 | E2 z2 E2 z2 | E2 z2 E2 z2 | E2 E2 E2 z2 |] %36

